src/assets/logos/UNI.svg

<svg width="24" height="24" viewBox="0 0 24 24" fill="none" xmlns="http://www.w3.org/2000/svg">
<path d="M12 24C18.6274 24 24 18.6274 24 12C24 5.37258 18.6274 0 12 0C5.37258 0 0 5.37258 0 12C0 18.6274 5.37258 24 12 24Z" fill="white"/>
<g clip-path="url(#clip0_16779_261241)">
<path d="M10.2741 7.09386C10.0744 7.06601 10.0649 7.05672 10.16 7.04744C10.3406 7.01959 10.7589 7.05672 11.0536 7.12171C11.7381 7.27952 12.3561 7.68798 13.0121 8.40278L13.1832 8.59772L13.4304 8.56059C14.4856 8.3935 15.5694 8.52346 16.4725 8.93192C16.7197 9.04332 17.1095 9.26611 17.157 9.32181C17.176 9.34038 17.2046 9.46106 17.2236 9.58174C17.2901 10.018 17.2616 10.343 17.119 10.5936C17.0429 10.7328 17.0429 10.77 17.0905 10.8907C17.1285 10.9835 17.2426 11.0485 17.3472 11.0485C17.5753 11.0485 17.813 10.6957 17.9271 10.2037L17.9746 10.0088L18.0602 10.1016C18.545 10.6307 18.9253 11.3641 18.9823 11.884L19.0014 12.0232L18.9158 11.9025C18.7732 11.689 18.6401 11.5498 18.4595 11.4291C18.1362 11.2156 17.794 11.1506 16.8908 11.1042C16.0733 11.0578 15.6074 10.9928 15.1511 10.8442C14.3715 10.5936 13.9722 10.2687 13.0501 9.07117C12.6413 8.54203 12.3846 8.25425 12.1279 8.01289C11.567 7.48375 11.0061 7.20525 10.2741 7.09386Z" fill="#FF007A"/>
<path d="M17.3582 8.27257C17.3772 7.91981 17.4247 7.68773 17.5293 7.47422C17.5673 7.39067 17.6054 7.31641 17.6149 7.31641C17.6244 7.31641 17.6054 7.38139 17.5769 7.45565C17.5008 7.65988 17.4913 7.94766 17.5388 8.27257C17.6054 8.69031 17.6339 8.74601 18.0902 9.20088C18.2994 9.4144 18.5466 9.68361 18.6416 9.795L18.8032 9.99923L18.6416 9.8507C18.442 9.66504 17.9857 9.31228 17.8811 9.26587C17.8145 9.22873 17.805 9.22873 17.7575 9.27515C17.7195 9.31228 17.71 9.36798 17.71 9.63719C17.7004 10.0549 17.6434 10.3149 17.5008 10.5841C17.4247 10.7233 17.4152 10.6955 17.4818 10.5377C17.5293 10.417 17.5388 10.3613 17.5388 9.9621C17.5388 9.15447 17.4438 8.95952 16.8638 8.63461C16.7212 8.55106 16.4741 8.43038 16.3315 8.3654C16.1793 8.30042 16.0653 8.24472 16.0748 8.24472C16.0938 8.22615 16.6547 8.38397 16.8733 8.4768C17.2061 8.60676 17.2631 8.61605 17.3012 8.60676C17.3297 8.57891 17.3487 8.50465 17.3582 8.27257Z" fill="#FF007A"/>
<path d="M10.6654 9.65615C10.2661 9.11773 10.0095 8.28225 10.0665 7.66028L10.0855 7.46533L10.1806 7.4839C10.3517 7.51175 10.6464 7.62315 10.789 7.70669C11.1693 7.92949 11.3404 8.23583 11.502 8.99705C11.5496 9.21984 11.6161 9.47977 11.6446 9.56332C11.6922 9.70257 11.8728 10.0275 12.0249 10.2317C12.1295 10.3802 12.0629 10.4545 11.8253 10.4359C11.464 10.3988 10.9792 10.0739 10.6654 9.65615Z" fill="#FF007A"/>
<path d="M16.8721 13.6941C14.9897 12.9515 14.3242 12.3109 14.3242 11.2248C14.3242 11.067 14.3337 10.937 14.3337 10.937C14.3432 10.937 14.4098 10.9927 14.4953 11.0577C14.8756 11.3548 15.3034 11.4847 16.4918 11.6518C17.1858 11.7539 17.5851 11.8282 17.9463 11.9489C19.0967 12.3202 19.8097 13.0814 19.9808 14.1118C20.0283 14.4089 19.9998 14.9752 19.9237 15.2722C19.8572 15.5043 19.6671 15.9313 19.6195 15.9406C19.61 15.9406 19.591 15.8942 19.591 15.8199C19.572 15.43 19.3724 15.0587 19.0396 14.7709C18.6403 14.4368 18.127 14.1861 16.8721 13.6941Z" fill="#FF007A"/>
<path d="M15.5413 14.0008C15.5223 13.8616 15.4747 13.6852 15.4462 13.6109L15.3987 13.4717L15.4842 13.5738C15.6078 13.713 15.7029 13.8801 15.7885 14.1122C15.855 14.2886 15.855 14.3443 15.855 14.6321C15.855 14.9106 15.8455 14.9755 15.7885 15.1334C15.6934 15.384 15.5793 15.5604 15.3892 15.7553C15.0469 16.0988 14.6001 16.2845 13.9631 16.368C13.8491 16.3773 13.5258 16.4052 13.2406 16.4237C12.5276 16.4609 12.0523 16.5351 11.6245 16.6836C11.5674 16.7022 11.5104 16.7208 11.5009 16.7115C11.4819 16.6929 11.7766 16.5258 12.0142 16.4144C12.347 16.2566 12.6892 16.1731 13.4403 16.0431C13.811 15.9874 14.1913 15.9131 14.2864 15.876C15.2276 15.5882 15.6934 14.8734 15.5413 14.0008Z" fill="#FF007A"/>
<path d="M16.4051 15.4951C16.1579 14.966 16.1008 14.4647 16.2339 13.9913C16.253 13.9449 16.272 13.8984 16.291 13.8984C16.31 13.8984 16.367 13.9263 16.4241 13.9634C16.5382 14.0377 16.7758 14.1676 17.3843 14.4926C18.1543 14.901 18.5916 15.2166 18.8958 15.5787C19.162 15.8943 19.3237 16.2564 19.3997 16.7019C19.4472 16.9526 19.4187 17.556 19.3522 17.8066C19.143 18.5957 18.6677 19.227 17.9737 19.589C17.8691 19.6447 17.7835 19.6818 17.774 19.6818C17.7645 19.6818 17.8026 19.589 17.8596 19.4776C18.0878 19.0042 18.1163 18.5493 17.9452 18.0387C17.8406 17.7231 17.6219 17.3425 17.1846 16.7019C16.6617 15.9593 16.5382 15.7643 16.4051 15.4951Z" fill="#FF007A"/>
<path d="M9.32464 18.3358C10.0281 17.7602 10.8933 17.3517 11.6918 17.2218C12.0341 17.1661 12.6045 17.1846 12.9182 17.2682C13.4221 17.3982 13.8784 17.6767 14.1161 18.0201C14.3443 18.3543 14.4488 18.6421 14.5534 19.2826C14.5914 19.5333 14.639 19.7932 14.6485 19.8489C14.7245 20.1831 14.8766 20.443 15.0668 20.5823C15.3615 20.7958 15.8749 20.8051 16.3787 20.6194C16.4643 20.5916 16.5403 20.5637 16.5403 20.573C16.5593 20.5916 16.3027 20.7587 16.1315 20.8422C15.8939 20.9629 15.7037 21 15.447 21C14.9907 21 14.6009 20.7679 14.2872 20.3038C14.2207 20.2109 14.0876 19.9417 13.9735 19.6911C13.6407 18.9392 13.4696 18.7164 13.0798 18.4657C12.7376 18.2522 12.3003 18.2058 11.9675 18.3636C11.5302 18.5678 11.4161 19.1155 11.7204 19.4497C11.844 19.589 12.0721 19.7004 12.2623 19.7282C12.614 19.7746 12.9182 19.5054 12.9182 19.162C12.9182 18.9392 12.8327 18.8092 12.6045 18.7071C12.3003 18.5771 11.9675 18.7256 11.9771 19.0134C11.9771 19.1341 12.0341 19.2084 12.1577 19.2641C12.2337 19.3012 12.2337 19.3012 12.1767 19.2919C11.901 19.2362 11.8344 18.902 12.0531 18.6885C12.3193 18.4286 12.8802 18.54 13.0703 18.902C13.1464 19.0506 13.1559 19.3476 13.0893 19.5333C12.9277 19.9417 12.4714 20.1553 12.0056 20.0346C11.6918 19.951 11.5587 19.8675 11.1785 19.4869C10.513 18.8185 10.2563 18.6885 9.30563 18.5493L9.125 18.5214L9.32464 18.3358Z" fill="#FF007A"/>
<path fill-rule="evenodd" clip-rule="evenodd" d="M4.32366 3.39917C6.53875 6.0263 9.9517 10.1109 10.1228 10.3337C10.2654 10.5193 10.2084 10.6957 9.97071 10.8257C9.83762 10.8999 9.56192 10.9742 9.42882 10.9742C9.27672 10.9742 9.09609 10.8999 8.9725 10.7793C8.88694 10.6957 8.51617 10.1666 7.67957 8.89479C7.04261 7.92006 6.50072 7.11243 6.49121 7.10315C6.45319 7.08458 6.45319 7.08458 7.61302 9.1083C8.34505 10.3801 8.58272 10.835 8.58272 10.8907C8.58272 11.0113 8.54469 11.0763 8.39258 11.2434C8.1359 11.5219 8.02181 11.8375 7.93625 12.4966C7.84118 13.23 7.5845 13.7499 6.85247 14.6318C6.42467 15.1516 6.35812 15.2445 6.25354 15.458C6.12045 15.7179 6.08242 15.8664 6.06341 16.2006C6.04439 16.5534 6.08242 16.7762 6.18699 17.1104C6.28206 17.4074 6.38664 17.6024 6.64332 17.983C6.86198 18.3172 6.99508 18.5678 6.99508 18.6606C6.99508 18.7349 7.01409 18.7349 7.35634 18.6606C8.17392 18.475 8.84891 18.1594 9.21967 17.7695C9.44784 17.5281 9.50488 17.3981 9.50488 17.064C9.50488 16.8504 9.49537 16.804 9.43833 16.6741C9.34326 16.4698 9.16263 16.3027 8.77285 16.0428C8.25948 15.6993 8.04083 15.4208 7.98379 15.0495C7.93625 14.7339 7.99329 14.5204 8.2785 13.9355C8.57321 13.3321 8.64926 13.0815 8.6968 12.4688C8.72532 12.0789 8.77285 11.9211 8.88694 11.8004C9.01052 11.6704 9.1151 11.624 9.40981 11.5869C9.89466 11.5219 10.2084 11.4012 10.4556 11.1692C10.6742 10.9742 10.7693 10.7793 10.7788 10.4915L10.7883 10.278L10.6647 10.148C10.2179 9.64673 4.02894 3 4.00042 3C3.99092 3 4.14303 3.17638 4.32366 3.39917ZM7.24225 16.5998C7.34683 16.4234 7.28979 16.2006 7.11866 16.0892C6.95705 15.9871 6.70987 16.0335 6.70987 16.1728C6.70987 16.2099 6.72888 16.247 6.78593 16.2656C6.87149 16.312 6.88099 16.3584 6.81445 16.4605C6.7479 16.5627 6.7479 16.6555 6.83346 16.7205C6.96655 16.8226 7.14718 16.7669 7.24225 16.5998Z" fill="#FF007A"/>
<path fill-rule="evenodd" clip-rule="evenodd" d="M11.0913 11.7165C10.8632 11.7815 10.6445 12.0229 10.578 12.2642C10.5399 12.4128 10.559 12.682 10.6255 12.7655C10.7301 12.8955 10.8252 12.9326 11.0913 12.9326C11.6142 12.9326 12.061 12.7098 12.1086 12.4406C12.1561 12.2178 11.9565 11.9115 11.6808 11.7722C11.5382 11.698 11.2435 11.6701 11.0913 11.7165ZM11.6998 12.1807C11.7758 12.0693 11.7473 11.9486 11.6047 11.8651C11.348 11.7073 10.9582 11.8372 10.9582 12.0786C10.9582 12.1993 11.1579 12.3292 11.348 12.3292C11.4716 12.3292 11.6427 12.255 11.6998 12.1807Z" fill="#FF007A"/>
</g>
<defs>
<clipPath id="clip0_16779_261241">
<rect width="16" height="18" fill="white" transform="translate(4 3)"/>
</clipPath>
</defs>
</svg>

<svg fill="none" height="24" width="24" xmlns="http://www.w3.org/2000/svg"><clipPath id="a"><path d="M4 3h16v18H4z"/></clipPath><path d="M12 24c6.627 0 12-5.373 12-12S18.627 0 12 0 0 5.373 0 12s5.373 12 12 12z" fill="#fff"/><g clip-path="url(#a)" fill="#ff007a"><path d="M10.274 7.094c-.2-.028-.21-.037-.114-.047.18-.027.599.01.894.075.684.158 1.302.566 1.958 1.28l.171.196.247-.037c1.056-.167 2.14-.038 3.042.37.248.112.637.335.685.39.019.02.048.14.067.26.066.437.038.762-.105 1.013-.076.139-.076.176-.029.297.038.093.153.158.257.158.228 0 .466-.353.58-.845l.048-.195.085.093c.485.529.865 1.262.922 1.782l.02.14-.086-.121a1.584 1.584 0 0 0-.457-.474c-.323-.213-.665-.278-1.568-.325-.818-.046-1.284-.111-1.74-.26-.78-.25-1.179-.575-2.1-1.773-.41-.529-.666-.817-.923-1.058-.561-.53-1.122-.808-1.854-.92z"/><path d="M17.358 8.273c.02-.353.067-.585.171-.799.038-.083.076-.158.086-.158s-.01.065-.038.14c-.076.204-.086.492-.038.817.066.417.095.473.551.928.21.213.457.483.552.594l.161.204-.161-.148c-.2-.186-.656-.539-.76-.585-.068-.037-.077-.037-.125.01-.038.036-.047.092-.047.361-.01.418-.067.678-.21.947-.075.14-.085.112-.018-.046.047-.121.057-.177.057-.576 0-.808-.095-1.002-.675-1.327a7.16 7.16 0 0 0-.532-.27 2.12 2.12 0 0 1-.257-.12c.019-.019.58.139.798.232.333.13.39.14.428.13.029-.028.048-.102.057-.334zm-6.693 1.383c-.399-.538-.655-1.374-.598-1.996l.018-.195.096.019c.17.028.465.14.608.223.38.222.551.529.713 1.29.048.223.114.483.143.566.047.14.228.464.38.669.104.148.038.223-.2.204-.361-.037-.846-.362-1.16-.78zm6.207 4.038c-1.882-.743-2.548-1.383-2.548-2.47 0-.157.01-.287.01-.287.01 0 .076.056.161.12.38.298.808.428 1.997.595.694.102 1.093.176 1.454.297 1.15.371 1.864 1.132 2.035 2.163.047.297.019.863-.057 1.16-.067.232-.257.66-.304.669-.01 0-.029-.047-.029-.121-.019-.39-.219-.761-.551-1.05-.4-.333-.913-.584-2.168-1.076zM15.541 14a2.158 2.158 0 0 0-.095-.39l-.047-.138.085.102c.124.139.219.306.304.538.067.177.067.232.067.52 0 .279-.01.343-.067.501a1.672 1.672 0 0 1-.399.622c-.342.344-.789.53-1.426.613-.114.01-.437.037-.722.056-.713.037-1.189.111-1.617.26-.057.018-.114.037-.123.027-.02-.018.276-.185.513-.297.333-.157.675-.24 1.426-.37.371-.057.751-.13.846-.168.942-.288 1.407-1.003 1.255-1.875z"/><path d="M16.405 15.495c-.247-.529-.304-1.03-.171-1.504.019-.046.038-.093.057-.093s.076.028.133.065c.114.075.352.205.96.53.77.408 1.208.724 1.512 1.086.266.315.428.677.504 1.123.047.25.019.854-.048 1.105-.209.789-.684 1.42-1.378 1.782-.105.056-.19.093-.2.093s.029-.093.086-.204c.228-.474.256-.929.085-1.44-.104-.315-.323-.696-.76-1.336-.523-.743-.647-.938-.78-1.207zm-7.08 2.841c.703-.576 1.568-.984 2.367-1.114.342-.056.913-.037 1.226.046.504.13.96.409 1.198.752.228.334.333.622.437 1.263.038.25.086.51.096.566.076.334.228.594.418.733.295.214.808.223 1.312.037.085-.027.161-.055.161-.046.02.019-.237.186-.408.27a1.38 1.38 0 0 1-.685.157c-.456 0-.846-.232-1.16-.696a5.193 5.193 0 0 1-.313-.613c-.333-.752-.504-.975-.894-1.225-.342-.214-.78-.26-1.112-.102-.438.204-.552.751-.248 1.086.124.139.352.25.542.278a.575.575 0 0 0 .656-.566c0-.223-.085-.353-.313-.455-.305-.13-.637.019-.628.306 0 .121.057.195.18.251.077.037.077.037.02.028-.276-.056-.343-.39-.124-.604.266-.26.827-.148 1.017.214.076.149.086.446.02.631-.162.409-.619.622-1.084.502-.314-.084-.447-.168-.827-.548-.666-.669-.923-.799-1.873-.938l-.181-.028z"/><path d="M4.324 3.4c2.215 2.626 5.628 6.71 5.799 6.934.142.185.085.362-.152.492a1.483 1.483 0 0 1-.542.148.694.694 0 0 1-.456-.195c-.086-.083-.457-.612-1.293-1.884a120.069 120.069 0 0 0-1.19-1.792c-.038-.018-.038-.018 1.122 2.005.732 1.272.97 1.727.97 1.783 0 .12-.038.185-.19.352-.257.279-.371.594-.457 1.254-.095.733-.351 1.253-1.084 2.135-.427.52-.494.612-.598.826-.134.26-.172.408-.19.743-.02.352.018.575.123.91.095.296.2.491.456.872.219.334.352.585.352.678 0 .074.02.074.361 0 .818-.186 1.493-.502 1.864-.892.228-.24.285-.37.285-.705 0-.214-.01-.26-.067-.39-.095-.204-.275-.371-.665-.631-.514-.344-.732-.622-.79-.994-.047-.315.01-.529.296-1.114.294-.603.37-.854.418-1.466.028-.39.076-.548.19-.669.124-.13.228-.176.523-.213.485-.065.798-.186 1.046-.418a.865.865 0 0 0 .323-.678l.01-.213-.124-.13C10.218 9.647 4.029 3 4 3c-.01 0 .143.176.324.4zm2.918 13.2a.378.378 0 0 0-.123-.51c-.162-.103-.41-.056-.41.083 0 .037.02.074.077.093.085.046.095.092.028.195-.066.102-.066.195.02.26.133.102.313.046.408-.121zm3.849-4.884c-.228.066-.446.307-.513.548-.038.149-.019.418.048.502.104.13.2.167.465.167.523 0 .97-.223 1.018-.492.047-.223-.152-.53-.428-.669a.989.989 0 0 0-.59-.056zm.609.465c.076-.112.047-.232-.095-.316-.257-.158-.647-.028-.647.214 0 .12.2.25.39.25.124 0 .295-.074.352-.148z" clip-rule="evenodd" fill-rule="evenodd"/></g></svg>
